!!!!SEGMENT: pl-sa--279-a-vii-39--003_rathgeber-johann-valentin--vesperae-laetatus-sum.krn
!!!cenid: 17xx:624
!!!COM: Rathgeber, Johann Valentin
!!!COM-rismid: pe30002639
!!!CDT: 1682/04/03-1750/06/02
!!!CNT: German
!!!OPR: Vesperae
!!!OTL: Laetatus sum
!!!OMV: 003
!!!PDT: 1731
!!!AGN: Sacred; Vespers
!!!SMS-siglum: PL-SA
!!!SMS-shelfmark: 279/A VII 39
!!!SMS-shelfwork: 001-003 M
!!!SMS-variant:
!!!SMS-altvar:
!!!NIFC-rismid: 1001077278
!!!URL-scan: http://bc.bdsandomierz.pl/dlibra/publication/1762/edition/1730/content
!!!ONB-nifc: UWAGA: części Vesperae: Dixit Dominus, Laudate Pueri, Laetatus sum, Nisi Dominus, Lauda Jerusalem, Magnificat
**kern	**fba	**kern	**kern	**kern	**text	**kern	**text	**kern	**text	**kern	**text
*part7	*	*part6	*part5	*part4	*part4	*part3	*part3	*part2	*part2	*part1	*part1
*staff7	*	*staff6	*staff5	*staff4	*staff4	*staff3	*staff3	*staff2	*staff2	*staff1	*staff1
*Iempty	*	*Ivioln	*Ivioln	*Iempty	*	*Itenor	*	*Ialto	*	*Ivox	*
*I"P7	*	*I"Violino Uniſono	*I"Violino Uniſono	*I"Baſso	*	*I"Tenore	*	*I"Alto	*	*I"Canto	*
*I'org	*	*I'vn 2	*I'vn 1	*I'B	*	*I'T	*	*I'A	*	*I'C	*
*group3	*	*group2	*group2	*group1	*	*group1	*	*group1	*	*group1	*
*clefF4	*	*clefG2	*clefG2	*clefF4	*	*clefC4	*	*clefC3	*	*clefC1	*
*k[]	*	*k[]	*k[]	*k[]	*	*k[]	*	*k[]	*	*k[]	*
*C:	*	*C:	*C:	*C:	*	*C:	*	*C:	*	*C:	*
*M2/4	*	*M2/4	*M2/4	*M2/4	*	*M2/4	*	*M2/4	*	*M2/4	*
=1	=1	=1	=1	=1	=1	=1	=1	=1	=1	=1	=1
!LO:TX:a:t=P:problem:brak nazwy partii, na stronie tytułowej "Baſso. Pro. ORGANO"	!	!LO:TX:a:t=P:problem:w skanie na str. 44	!	!	!	!	!	!	!	!	!
!LO:TX:a:t=Leatatus ſum	!	!LO:TX:b:t=Leatat(us) ſum	!LO:TX:a:t=P:problem:w skanie na str. 36-37	!	!	!	!	!	!	!	!
!LO:TX:a:t=Solo	!	!	!LO:TX:b:t=Leatat(us) ſum	!LO:TX:b:t=Leatatus	!	!LO:TX:b:t=Leatat(us)	!	!LO:TX:b:t=Leatatusſu(m)	!	!	!
!LO:TX:a:t=P:problem:mixed beam	!	!LO:N:vis=00	!LO:N:vis=00	!LO:N:vis=00	!	!LO:N:vis=00	!	!LO:N:vis=00	!	!	!
8C/L	.	0r	0r	0r	.	0r	.	0r	.	4r	.
8c\J	.	.	.	.	.	.	.	.	.	.	.
8B\L	6	.	.	.	.	.	.	.	.	8r	.
8G\J	.	.	.	.	.	.	.	.	.	8g/	Lae-
=2	=2	=2	=2	=2	=2	=2	=2	=2	=2	=2	=2
8E/L	.	.	.	.	.	.	.	.	.	16cc\LL	-ta-
.	.	.	.	.	.	.	.	.	.	16b\	.
8D/	.	.	.	.	.	.	.	.	.	16cc\	.
.	.	.	.	.	.	.	.	.	.	16dd\JJ	.
8E/	.	.	.	.	.	.	.	.	.	16cc\LL	.
.	.	.	.	.	.	.	.	.	.	16ee\	.
8C/J	.	.	.	.	.	.	.	.	.	16dd\	.
.	.	.	.	.	.	.	.	.	.	16cc\JJ	.
=3	=3	=3	=3	=3	=3	=3	=3	=3	=3	=3	=3
8BB/L	6	.	.	.	.	.	.	.	.	16dd\LL	.
.	.	.	.	.	.	.	.	.	.	16cc\	.
8AA/	.	.	.	.	.	.	.	.	.	16dd\	.
.	.	.	.	.	.	.	.	.	.	16ee\JJ	.
8BB/	.	.	.	.	.	.	.	.	.	16dd\LL	.
.	.	.	.	.	.	.	.	.	.	16ee\	.
8GG/J	.	.	.	.	.	.	.	.	.	16ff\	.
.	.	.	.	.	.	.	.	.	.	16dd\JJ	.
!LO:LB:g=original	!	!	!	!	!	!	!	!	!	!	!
=4	=4	=4	=4	=4	=4	=4	=4	=4	=4	=4	=4
4C/	.	.	.	.	.	.	.	.	.	16ee\LL	.
.	.	.	.	.	.	.	.	.	.	16dd\	.
.	.	.	.	.	.	.	.	.	.	16cc\	.
.	.	.	.	.	.	.	.	.	.	16dd\JJ	.
8r	.	.	.	.	.	.	.	.	.	16ee\LL	.
.	.	.	.	.	.	.	.	.	.	16ff\	.
8D/	.	.	.	.	.	.	.	.	.	16ee\	.
.	.	.	.	.	.	.	.	.	.	16ff\JJ	.
=5	=5	=5	=5	=5	=5	=5	=5	=5	=5	=5	=5
!LO:TX:a:t=P:problem:mixed beam	!	!LO:N:vis=0	!LO:N:vis=0	!LO:N:vis=0	!	!LO:N:vis=0	!	!LO:N:vis=0	!	!	!
8E\L	.	1r	1r	1r	.	1r	.	1r	.	8gg\L	.
8F\	.	.	.	.	.	.	.	.	.	16ff\L	.
.	.	.	.	.	.	.	.	.	.	16ee\JJ	.
8G\	.	.	.	.	.	.	.	.	.	8.dd\	.
8GG/J	.	.	.	.	.	.	.	.	.	.	.
.	.	.	.	.	.	.	.	.	.	16dd\	-tus
=6	=6	=6	=6	=6	=6	=6	=6	=6	=6	=6	=6
!LO:TX:a:t=P:problem:mixed beam	!	!	!	!	!	!	!	!	!	!LO:TX:a:t=P:problem:oddech jako rozdzielacz słów:global	!
8C/L	.	.	.	.	.	.	.	.	.	8cc,\	ſum
8c\	.	.	.	.	.	.	.	.	.	8ee\	in
8B\	.	.	.	.	.	.	.	.	.	8dd\	his
8A\J	6|	.	.	.	.	.	.	.	.	8cc\	quae
=7	=7	=7	=7	=7	=7	=7	=7	=7	=7	=7	=7
!LO:TX:a:t=P:problem:mixed beam	!	!	!	!	!	!	!	!	!	!	!
8G\L	.	2r	2r	2r	.	2r	.	2r	.	8b\	di-
8C/	.	.	.	.	.	.	.	.	.	16cc\	-cta
.	.	.	.	.	.	.	.	.	.	16dd\	ſunt
!	!	!	!	!	!	!	!	!	!	!LO:LB:g=original	!
8D/	.	.	.	.	.	.	.	.	.	4a\	mi-
8DD/J	#	.	.	.	.	.	.	.	.	.	.
=8	=8	=8	=8	=8	=8	=8	=8	=8	=8	=8	=8
!LO:TX:a:t=P:problem:mixed beam	!	!	!	!	!	!	!	!	!	!	!
8GG/L	.	8r	8r	8r	.	8r	.	8r	.	8g,\	-hi
!LO:TX:b:t=Tut	!	!	!	!	!	!	!	!	!	!	!
8G\	.	8g/	8g/	8G\	In	8d\	In	8g\	In	8b\	in
8E\	6	8cc\L	8cc\L	8E\	Do-	8e\	Do-	8g\	Do-	8cc\	Do-
8F\J	.	8a\J	8a\J	8F\	-mum	8c\	-mum	8a\	-mum	8a\	-mu(m)
=9	=9	=9	=9	=9	=9	=9	=9	=9	=9	=9	=9
8D/L	.	8b\L	8b\L	8D/	Do-	8d\	Do-	8f\	Do-	8b\	Do-
8C/J	.	16cc\L	16cc\L	16C/	-mi-	16e\	-mi-	16g\	-mi-	16cc\	-mi-
.	.	16dd\JJ	16dd\JJ	16C/	-ni	16f\	-ni	16g\	-ni	16dd\	-ni
!LO:TX:a:t=P:problem:mixed beam	!	!	!	!	!	!	!	!	!	!	!
8G\L	.	8g/L	8g/L	8G\	i-	8.d\	i-	8g\	i-	8.b\	i-
8GG/J	.	8b/J	8b/J	8GG/	-bi-	.	.	8g\	-bi-	.	.
.	.	.	.	.	.	16d\	-bi-	.	.	16b\	-bi-
=10	=10	=10	=10	=10	=10	=10	=10	=10	=10	=10	=10
!LO:TX:b:i:t=Solo	!	!	!	!	!	!LO:TX:a:t=P:problem:oddech jako rozdzielacz słów:global	!	!	!	!	!
4C/	.	4cc\	4cc\	4C/	-mus	4c,\	-mus	4g\	-mus	4cc\	-mus
!	!	!	!	!	!	!LO:TX:a:i:t=Solo	!	!	!	!	!
8r	.	4r	4r	4r	.	8c\	ſtan-	4r	.	4r	.
8D/	.	.	.	.	.	8B,\	-tes	.	.	.	.
!	!	!	!	!	!	!	!	!LO:LB:g=original	!	!	!
=11	=11	=11	=11	=11	=11	=11	=11	=11	=11	=11	=11
!LO:TX:a:t=P:problem:mixed beam	!	!	!	!	!	!	!	!	!	!	!
8E\L	.	2r	2r	2r	.	8c\	e-	2r	.	2r	.
8F\	.	.	.	.	.	8d\	-rant	.	.	.	.
8G\	.	.	.	.	.	8G/	pe-	.	.	.	.
8GG/J	.	.	.	.	.	8B\	-des	.	.	.	.
=12	=12	=12	=12	=12	=12	=12	=12	=12	=12	=12	=12
!LO:TX:a:t=P:problem:mixed beam	!	!	!	!	!	!	!	!	!	!	!
!LO:TX:b:i:t=Tut	!	!	!LO:N:vis=8	!	!	!	!	!	!	!	!
8C/L	.	8r	16r	8r	.	8c\	no-	8r	.	8r	.
!	!	!	!LO:N:vis=8	!	!	!	!	!	!	!	!
.	.	.	16r	.	.	.	.	.	.	.	.
8c\	.	8ee\L	8ee\L	8c\	In	16c\	-ſtri	8g\	In	8ee\	in
.	.	.	.	.	.	16c\	in	.	.	.	.
!	!	!	!	!	!	!LO:LB:g=original	!	!	!	!	!
8B\	.	8dd\	8dd\	8B\	a-	8d\	a-	8g\	a-	8dd\	a-
8A\J	6|	8cc\J	8cc\J	16A\	-tri-	16A/	-tri-	16f#X\	-tri-	16cc\	-tri-
!	!	!	!	!	!	!LO:SIC:l:s=-is:v	!	!	!	!	!
.	.	.	.	16A\	-is	16A/	-tis	16f#\	-is	16cc,\	-is
=13	=13	=13	=13	=13	=13	=13	=13	=13	=13	=13	=13
!LO:TX:a:t=P:problem:mixed beam	!	!	!	!	!	!	!	!	!	!	!
8G\L	.	8b\L	8b\L	8G\	tu-	8d\	tu-	8g\	tu-	8b\	tu-
!	!	!	!	!LO:PB:g=original	!	!	!	!LO:TX:a:t=P:problem:oddech jako rozdzielacz słów:global	!	!	!
8C/	.	8ee\	8ee\J	16C/	-is	16e\	-is	16a,\	-is	16cc,\	-is
.	.	.	.	16C/	Je-	16e\	Je-	16g\	Je-	16dd\	Je-
8D/	.	8a\	8a\L	8D/	-ru-	8.d\	-ru-	8.f#X\	-ru-	8.a\	-ru-
8DD/J	#	8dd\J	8dd\J	8D/	-sa-	.	.	.	.	.	.
.	.	.	.	.	.	16d\	-sa-	16f#\	-ſa-	16a\	-ſa-
!LO:LB:g=original	!	!	!	!	!	!	!	!	!	!	!
=14	=14	=14	=14	=14	=14	=14	=14	=14	=14	=14	=14
!LO:TX:b:i:t=Solo	!	!	!	!	!	!	!	!	!	!	!
!LO:TX:a:t=P:problem:mixed beam	!	!	!	!	!	!	!	!	!	!	!
8GG/L	.	8b/	8b/	8GG/	-lem	8d\	-lem	8g,\	-lem	8g/	-lem
8G\	.	8r	8r	8r	.	8r	.	8g\	Je-	8r	.
8E\	.	4r	4r	4r	.	4r	.	8g\	-ru-	4r	.
8C\J	.	.	.	.	.	.	.	16e\	-ſa-	.	.
.	.	.	.	.	.	.	.	16e\	-lem	.	.
=15	=15	=15	=15	=15	=15	=15	=15	=15	=15	=15	=15
!LO:TX:a:t=P:problem:mixed beam	!	!LO:N:vis=00	!LO:N:vis=00	!LO:N:vis=00	!	!LO:N:vis=00	!	!	!	!LO:N:vis=00	!
8F\L	.	0r	0r	0r	.	0r	.	8a\	q(uae)	0r	.
8D\	.	.	.	.	.	.	.	8f\	ae-	.	.
8G\	.	.	.	.	.	.	.	8d\	-di-	.	.
8GG/J	.	.	.	.	.	.	.	8g\	-fi-	.	.
=16	=16	=16	=16	=16	=16	=16	=16	=16	=16	=16	=16
8C/L	.	.	.	.	.	.	.	16e\LL	-ca-	.	.
.	.	.	.	.	.	.	.	16f\	.	.	.
8BB/	.	.	.	.	.	.	.	16d\	.	.	.
.	.	.	.	.	.	.	.	16f\JJ	.	.	.
8C/	.	.	.	.	.	.	.	16e\LL	.	.	.
.	.	.	.	.	.	.	.	16g\	.	.	.
8AA/J	6|	.	.	.	.	.	.	16f#X\	.	.	.
.	.	.	.	.	.	.	.	16a\JJ	.	.	.
=17	=17	=17	=17	=17	=17	=17	=17	=17	=17	=17	=17
!LO:TX:a:t=P:problem:mixed beam	!	!	!	!	!	!	!	!LO:N:vis=4.	!	!	!
8GG/L	.	.	.	.	.	.	.	4g\	.	.	.
8G\	.	.	.	.	.	.	.	.	.	.	.
8E\	.	.	.	.	.	.	.	16ryy	.	.	.
.	.	.	.	.	.	.	.	16fn\LL	.	.	.
8C\J	.	.	.	.	.	.	.	16g\	.	.	.
.	.	.	.	.	.	.	.	16e\JJ	.	.	.
!	!	!	!	!	!	!	!	!LO:LB:g=original	!	!	!
=18	=18	=18	=18	=18	=18	=18	=18	=18	=18	=18	=18
8F\L	.	.	.	.	.	.	.	16a\LL	.	.	.
.	.	.	.	.	.	.	.	16b\	.	.	.
8E\	.	.	.	.	.	.	.	16g\	.	.	.
.	.	.	.	.	.	.	.	16a\JJ	.	.	.
8F\	.	.	.	.	.	.	.	8a\	.	.	.
8G\J	.	.	.	.	.	.	.	8b\	.	.	.
=19	=19	=19	=19	=19	=19	=19	=19	=19	=19	=19	=19
!LO:TX:a:t=P:problem:mixed beam	!	!	!	!	!	!	!	!	!	!	!
8A\L	.	2r	2r	2r	.	2r	.	8cc\	.	2r	.
8F\	.	.	.	.	.	.	.	16c,/	-tur	.	.
.	.	.	.	.	.	.	.	16d/	ut	.	.
8G\	.	.	.	.	.	.	.	8.B/	Ci-	.	.
8GG/J	.	.	.	.	.	.	.	.	.	.	.
.	.	.	.	.	.	.	.	16B/	-vi-	.	.
!	!	!	!	!	!	!	!	!	!	!LO:LB:g=original	!
=20	=20	=20	=20	=20	=20	=20	=20	=20	=20	=20	=20
!LO:TX:b:i:t=Tut	!	!	!	!	!	!	!	!	!	!	!
!LO:TX:a:t=P:problem:mixed beam	!	!	!	!	!	!	!	!	!	!	!
8C/L	.	8r	8r	8r	.	8r	.	8c,/	-tas	8r	.
8c\	.	16ee\LL	16ee\LL	8c\	Cu-	8c\	Cu-	8g\	Cu-	8ee\	Cu-
.	.	16ff\JJ	16ff\JJ	.	.	.	.	.	.	.	.
8B\	.	16gg\LL	16gg\LL	8B\	-jus	8d\	-ius	8g\	-ius	8dd\	-ius
.	.	16gg\	16gg\	.	.	.	.	.	.	.	.
8G\J	.	16gg\	16gg\	8G\	Par-	8B\	par-	8g\	par-	8dd\	par-
.	.	16gg\JJ	16gg\JJ	.	.	.	.	.	.	.	.
!	!	!LO:LB:g=original	!LO:LB:g=original	!	!	!	!	!	!	!	!
=21	=21	=21	=21	=21	=21	=21	=21	=21	=21	=21	=21
8E\L	6	16cc\LL	16cc\LL	8E\	-ti-	8c\	-ti-	8g\	-ti-	8ee\	-ti-
.	.	16b\	16b\	.	.	.	.	.	.	.	.
8D\	.	16cc\	16cc\	8D/	-ci-	8c\	-ci-	8g\	-ci-	8ee\	-ci-
.	.	16dd\JJ	16dd\JJ	.	.	.	.	.	.	.	.
8E\	.	16cc\LL	16cc\LL	8E\	-pa-	8c\	-pa-	8g\	-pa-	8ee\	-pa-
.	.	16dd\	16dd\	.	.	.	.	.	.	.	.
8C\J	.	16ee\	16ee\	16C/	-ti-	16c\	-ti-	16g\	-ti-	16ee\	-ti-
.	.	16cc\JJ	16cc\JJ	16C/	-o	16c\	-o	16g\	-o	16ee\	-o
=22	=22	=22	=22	=22	=22	=22	=22	=22	=22	=22	=22
8G\L	.	16dd\LL	16dd\LL	8G\	e-	8B\	e-	8g\	e-	8dd\	e-
.	.	16cc\	16cc\	.	.	.	.	.	.	.	.
8G\J	.	16b\	16b\	8G\	-jus	8B\	-ius	8g\	-jus	8dd\	-jus
.	.	16a\JJ	16a\JJ	.	.	.	.	.	.	.	.
!	!	!LO:TX:a:t=P:problem:mixed beam	!LO:TX:a:t=P:problem:mixed beam	!	!	!	!	!	!	!	!
4r	.	16g/LL	16g/LL	4r	.	4r	.	4r	.	4r	.
.	.	16gg\	16gg\	.	.	.	.	.	.	.	.
.	.	16gg\	16gg\	.	.	.	.	.	.	.	.
.	.	16gg\JJ	16gg\JJ	.	.	.	.	.	.	.	.
=23	=23	=23	=23	=23	=23	=23	=23	=23	=23	=23	=23
!LO:TX:a:t=P:problem:mixed beam	!	!	!	!	!	!	!	!	!	!	!
8E\L	.	8gg\L	8gg\L	8E\	in	8c\	in	8g\	In	8gg\	in
!	!	!	!	!	!	!LO:LB:g=original	!	!	!	!	!
8F\	.	16ff\L	16ff\L	8F\	i-	8d\	i-	8a\	i-	16ff\LL	i-
.	.	16ee\JJ	16ee\JJ	.	.	.	.	.	.	16ee\JJ	.
!	!	!	!	!LO:LB:g=original	!	!	!	!	!	!	!
!	!	!	!	!LO:TX:a:t=P:problem:mixed beam	!	!	!	!	!	!	!
8G\	.	8dd\L	8dd\L	(>8G\L	-di-	4B\	-di-	4g\	-di-	4dd\	-di-
8GG/J	.	8gg\J	8gg\J	8GG/J)	.	.	.	.	.	.	.
=24	=24	=24	=24	=24	=24	=24	=24	=24	=24	=24	=24
!LO:TX:b:i:t=Solo	!	!	!	!LO:TX:a:t=P:problem:oddech jako rozdzielacz słów	!	!	!	!	!	!	!
4C/	.	4ee\	4ee\	4CZ,/	-psum	4c\	-psum	4g\	-psum	4cc\	-psum
4r	.	4r	4r	8c\	Il-	4r	.	4r	.	4r	.
.	.	.	.	8c\	-luc	.	.	.	.	.	.
!LO:PB:g=original	!	!	!	!	!	!	!	!	!	!	!
=25	=25	=25	=25	=25	=25	=25	=25	=25	=25	=25	=25
!	!	!LO:N:vis=0	!LO:N:vis=0	!	!	!LO:N:vis=00	!	!LO:N:vis=00	!	!LO:N:vis=00	!
4C/	.	1r	1r	8c\	e-	0r	.	0r	.	0r	.
.	.	.	.	8G\	-nim	.	.	.	.	.	.
4r	.	.	.	8E\	aſ-	.	.	.	.	.	.
.	.	.	.	8G\	-cen-	.	.	.	.	.	.
=26	=26	=26	=26	=26	=26	=26	=26	=26	=26	=26	=26
4C/	.	.	.	8C/	-de-	.	.	.	.	.	.
.	.	.	.	8C,/	-runt	.	.	.	.	.	.
4r	.	.	.	8C/	aſ-	.	.	.	.	.	.
.	.	.	.	8C/	-cen-	.	.	.	.	.	.
=27	=27	=27	=27	=27	=27	=27	=27	=27	=27	=27	=27
4D/	.	4r	4r	8D/L	-de-	.	.	.	.	.	.
.	.	.	.	16C/L	.	.	.	.	.	.	.
.	.	.	.	16D/JJ	.	.	.	.	.	.	.
4E\	.	8g/L	8g/L	16E\LL	.	.	.	.	.	.	.
.	.	.	.	16D\J	.	.	.	.	.	.	.
.	.	8g/J	8g/J	8E\J	.	.	.	.	.	.	.
=28	=28	=28	=28	=28	=28	=28	=28	=28	=28	=28	=28
4F\	.	8a/L	8a/L	16F\LL	.	.	.	.	.	.	.
.	.	.	.	16E\J	.	.	.	.	.	.	.
!	!	!LO:SIC:s=16g	!	!	!	!	!	!	!	!	!
.	.	16f/L	16g/L	8F\J	.	.	.	.	.	.	.
.	.	16a/JJ	16a/JJ	.	.	.	.	.	.	.	.
4G\	.	8b/L	8b/L	16G\LL	.	.	.	.	.	.	.
.	.	.	.	16F\J	.	.	.	.	.	.	.
.	.	16a/L	16a/L	8G\J	.	.	.	.	.	.	.
.	.	16b/JJ	16b/JJ	.	.	.	.	.	.	.	.
=29	=29	=29	=29	=29	=29	=29	=29	=29	=29	=29	=29
!	!	!	!	!	!	!LO:N:vis=0	!	!LO:N:vis=0	!	!LO:N:vis=0	!
4A\	.	8cc\L	8cc\L	16A\LL	.	1r	.	1r	.	1r	.
.	.	.	.	16G\J	.	.	.	.	.	.	.
.	.	16b\L	16b\L	8A\J	.	.	.	.	.	.	.
.	.	16cc\JJ	16cc\JJ	.	.	.	.	.	.	.	.
4B\	.	8dd\L	8dd\L	16B\LL	.	.	.	.	.	.	.
.	.	.	.	16A\J	.	.	.	.	.	.	.
.	.	16cc\L	16cc\L	8B\J	.	.	.	.	.	.	.
.	.	16dd\JJ	16dd\JJ	.	.	.	.	.	.	.	.
!	!	!	!	!LO:LB:g=original	!	!	!	!	!	!	!
=30	=30	=30	=30	=30	=30	=30	=30	=30	=30	=30	=30
4c\	.	16ee\LL	16ee\LL	8c\	.	.	.	.	.	.	.
.	.	16dd\J	16dd\J	.	.	.	.	.	.	.	.
.	.	8ee\J	8ee\J	8c,\	-runt	.	.	.	.	.	.
4E\	6	8cc\L	8cc\L	8E\	tri-	.	.	.	.	.	.
.	.	8cc\J	8cc\J	8E\	-bus	.	.	.	.	.	.
!	!	!LO:LB:g=original	!	!	!	!	!	!	!	!	!
=31	=31	=31	=31	=31	=31	=31	=31	=31	=31	=31	=31
8F\L	.	8cc\L	8cc\LL	8F\	{tri-	2r	.	2r	.	2r	.
8E\	.	16dd\L	16dd\J	8E,\	-bus}	.	.	.	.	.	.
.	.	16ee\JJ	16ee\J	.	.	.	.	.	.	.	.
8D\	7	16ff\LL	16ff\L	8D/	Do-	.	.	.	.	.	.
.	.	16ee\	16ee\	.	.	.	.	.	.	.	.
8G\J	7	16ff\	16ff\	8G\	-mi-	.	.	.	.	.	.
.	.	16gg\JJ	16gg\J	.	.	.	.	.	.	.	.
!	!	!	!	!	!	!	!	!LO:PB:g=original	!	!	!
=32	=32	=32	=32	=32	=32	=32	=32	=32	=32	=32	=32
!	!	!	!LO:SIC:s=8gg:t=lub ee:v	!	!	!	!	!	!	!	!
!LO:TX:a:t=P:problem:mixed beam	!	!LO:SIC:s=8gg:t=lub ee:v	!LO:TX:a:t=P:problem:takt dopisany, słabo czytelne pierwsze 2 dźwieki, w drugim odpisie jest błędne ff	!	!	!	!	!	!	!	!
8C/L	.	8ff\L	8ff\L	8C,/	-ni	8r	.	8r	.	8r	.
!LO:TX:b:i:t=Tut	!	!LO:SIC:s=8gg:t=lub ee:v	!LO:SIC:s=8gg:t=lub ee:v	!	!	!	!	!	!	!	!
8c\	.	8ff\	8ff\	16c\	teſ-	16c\	tes-	16g\	Tes-	16ee\	Tes-
.	.	.	.	16c\	-ti-	16c\	-ti-	16g\	-ti-	16ee\	-ti-
8G#X\	6	8ee\	8ee\	8G#X\	-mo-	8B\	-mo-	8b\	-mo-	8ee\	-mo-
8A\J	.	8ee\J	8ee\J	16A\	-ni-	16A/	-ni-	16e\	-ni-	16cc\	-ni-
.	.	.	.	16A\	-um	16A/	-um	16e\	-um	16cc\	-um
=33	=33	=33	=33	=33	=33	=33	=33	=33	=33	=33	=33
4E\	#	4ee\	4ee\	8E\	I-	8G#X/	I-	8e\	I-	8b\	I-
.	.	.	.	8E\	-ſra-	8G#/	-ſra-	8e\	-ſra-	8b\	-ſra-
8r	.	8r	8r	8E,\	-el	8G#/	-el	8e,\	-el	8b\	-el
!	!	!	!	!	!	!	!	!	!	!LO:LB:g=original	!
8A\	.	8ee\	8ee\	8A\	ad	8A/	ad	8e\	ad	8cc\	ad
=34	=34	=34	=34	=34	=34	=34	=34	=34	=34	=34	=34
4E\	#	4ee\	4ee\	8E\	Con-	8G#X/	Con-	8e\	Con-	8b\	Con-
.	.	.	.	8E\	-fi-	8G#/	-fi-	8e\	-fi-	8b\	-fi-
8r	.	8r	8r	8E\	-ten-	8G#/	-ten-	8e\	-ten-	8b\	-ten-
8A\	.	8ee\	8ee\	8A\	-du(m)	8A/	-dum	8e\	-du(m)	8cc\	-dum
=35	=35	=35	=35	=35	=35	=35	=35	=35	=35	=35	=35
!LO:TX:a:t=P:problem:mixed beam	!	!	!	!	!	!	!	!	!	!	!
8E\L	#	8ee\L	8ee\L	8E\	no-	8G#X/	No-	8e\	No-	8b\	No-
!	!	!	!	!LO:LB:g=original	!	!	!	!	!	!	!
8A\	.	8ee\	8ee\	16A\	-mi-	16A/	-mi-	16e\	-mi-	16cc\	-mi-
!	!	!	!	!	!	!LO:LB:g=original	!	!	!	!	!
.	.	.	.	16A\	-ni	16B\	-ni	16e\	-ni	16cc\	-ni
8E\	#	8ee\	8ee\	8E\	Do-	8.G#X/	Do-	8.e\	Do-	8.b\	Do-
8EE/J	.	8ee\J	8ee\J	8E\	-mi-	.	.	.	.	.	.
.	.	.	.	.	.	16G#/	-mi-	16e\	-mi-	16b\	-mi-
!LO:LB:g=original	!	!	!	!	!	!	!	!	!	!	!
=36	=36	=36	=36	=36	=36	=36	=36	=36	=36	=36	=36
!LO:TX:a:t=P:problem:mixed beam	!	!	!	!	!	!	!	!	!	!	!
8AA/L	.	4ee\	4ee\	4AA/	-ni	4A/	-ni	4e\	-ni	4a\	-ni
!LO:TX:b:i:t=Solo	!	!	!	!	!	!	!	!	!	!	!
8A\	.	.	.	.	.	.	.	.	.	.	.
!	!	!	!	!	!	!LO:TX:a:i:t=Solo	!	!	!	!	!
8G#X\	6	4r	4r	4r	.	8e\	qui-	4r	.	4r	.
8E\J	#	.	.	.	.	8e\	-a	.	.	.	.
=37	=37	=37	=37	=37	=37	=37	=37	=37	=37	=37	=37
!	!	!LO:N:vis=00	!LO:N:vis=00	!LO:N:vis=00	!	!	!	!LO:N:vis=00	!	!LO:N:vis=00	!
8F\L	.	0r	0r	0r	.	4A/	il-	0r	.	0r	.
8E\	#	.	.	.	.	.	.	.	.	.	.
8F\	.	.	.	.	.	8A/	-lic	.	.	.	.
8D\J	6	.	.	.	.	8B\	ſe-	.	.	.	.
=38	=38	=38	=38	=38	=38	=38	=38	=38	=38	=38	=38
8E\L	#	.	.	.	.	4G#X/	-de-	.	.	.	.
8D\	.	.	.	.	.	.	.	.	.	.	.
8C\	6	.	.	.	.	4A/	-runt	.	.	.	.
8AA\J	.	.	.	.	.	.	.	.	.	.	.
=39	=39	=39	=39	=39	=39	=39	=39	=39	=39	=39	=39
4E\	#	.	.	.	.	8B\	ſe-	.	.	.	.
.	.	.	.	.	.	8c\	-des	.	.	.	.
8r	.	.	.	.	.	8B\	in	.	.	.	.
8F\	.	.	.	.	.	8A/	Ju-	.	.	.	.
=40	=40	=40	=40	=40	=40	=40	=40	=40	=40	=40	=40
8E\L	#	.	.	.	.	8G#X/	-di-	.	.	.	.
8F#X\	.	.	.	.	.	8F#X/	-ci-	.	.	.	.
8G#X\	.	.	.	.	.	4E/	-o	.	.	.	.
8E\J	.	.	.	.	.	.	.	.	.	.	.
=41	=41	=41	=41	=41	=41	=41	=41	=41	=41	=41	=41
*	*	*	*	*	*	*2\right	*	*	*	*	*
!	!	!LO:N:vis=00	!LO:N:vis=00	!LO:N:vis=00	!	!	!	!LO:N:vis=00	!	!LO:N:vis=00	!
8A\L	.	0r	0r	0r	.	2e\	ſe-	0r	.	0r	.
8B\	.	.	.	.	.	.	.	.	.	.	.
8c\	.	.	.	.	.	.	.	.	.	.	.
8G#X\J	6	.	.	.	.	.	.	.	.	.	.
!	!	!	!	!	!	!LO:LB:g=original	!	!	!	!	!
=42	=42	=42	=42	=42	=42	=42	=42	=42	=42	=42	=42
8A\L	.	.	.	.	.	2e\	-des	.	.	.	.
8B\	.	.	.	.	.	.	.	.	.	.	.
8c\	.	.	.	.	.	.	.	.	.	.	.
8G#X\J	6	.	.	.	.	.	.	.	.	.	.
=43	=43	=43	=43	=43	=43	=43	=43	=43	=43	=43	=43
8A\L	.	.	.	.	.	4.e\	ſu-	.	.	.	.
8B\	.	.	.	.	.	.	.	.	.	.	.
8c\	.	.	.	.	.	.	.	.	.	.	.
8G#X\J	6	.	.	.	.	8e\	-per	.	.	.	.
=44	=44	=44	=44	=44	=44	=44	=44	=44	=44	=44	=44
!LO:TX:a:t=P:problem:mixed beam	!	!	!	!	!	!	!	!	!	!	!
8A\L	6	.	.	.	.	8e\	do-	.	.	.	.
8D\	.	.	.	.	.	16d\LL	-mum	.	.	.	.
.	.	.	.	.	.	16c\JJ	.	.	.	.	.
8E\	#	.	.	.	.	4B\	Da-	.	.	.	.
8EE/J	.	.	.	.	.	.	.	.	.	.	.
=45	=45	=45	=45	=45	=45	=45	=45	=45	=45	=45	=45
!LO:TX:a:t=P:problem:mixed beam	!	!	!LO:N:vis=00	!	!	!LO:SIC:l:s=-vid:v	!	!LO:N:vis=00	!	!LO:N:vis=0	!
8AA/L	.	0r	0r	4r	.	4A/	-vit	0r	.	0r	.
!LO:TX:b:i:t=Baſso	!	!	!	!	!	!	!	!	!	!	!
8A\	.	.	.	.	.	.	.	.	.	.	.
8E\	6	.	.	8r	.	4r	.	.	.	.	.
8C\J	.	.	.	8c\	Ro-	.	.	.	.	.	.
!LO:LB:g=original	!	!	!	!	!	!	!	!	!	!	!
=46	=46	=46	=46	=46	=46	=46	=46	=46	=46	=46	=46
!	!	!	!	!	!	!LO:N:vis=00	!	!	!	!	!
4F\	.	.	.	16c\LL	-ga-	0r	.	.	.	.	.
.	.	.	.	16B-X\	.	.	.	.	.	.	.
.	.	.	.	16c\	.	.	.	.	.	.	.
.	.	.	.	16d\JJ	.	.	.	.	.	.	.
8r	.	.	.	16c\LL	.	.	.	.	.	.	.
.	.	.	.	16d\	.	.	.	.	.	.	.
8E\	6	.	.	16c\	.	.	.	.	.	.	.
.	.	.	.	16B-X\JJ	.	.	.	.	.	.	.
=47	=47	=47	=47	=47	=47	=47	=47	=47	=47	=47	=47
8F\L	.	.	.	8A\	.	.	.	.	.	.	.
8E\J	.	.	.	8G,\	-te	.	.	.	.	.	.
8D/L	.	.	.	8F\	quae	.	.	.	.	.	.
8AA/J	.	.	.	8C/	ad	.	.	.	.	.	.
=48	=48	=48	=48	=48	=48	=48	=48	=48	=48	=48	=48
8BB-X/L	.	.	.	8D/	pa-	.	.	.	.	.	.
8GG/	.	.	.	8D,/	-cem	.	.	.	.	.	.
8C/	.	.	.	8E\	ſsunt	.	.	.	.	.	.
8AA/J	.	.	.	8E\	Je-	.	.	.	.	.	.
=49	=49	=49	=49	=49	=49	=49	=49	=49	=49	=49	=49
!	!	!LO:N:vis=00	!LO:N:vis=00	!	!	!	!	!LO:N:vis=00	!	!LO:N:vis=00	!
4D/	.	0r	0r	8F\	-ru-	.	.	0r	.	0r	.
.	.	.	.	8F\	-ſa-	.	.	.	.	.	.
8r	.	.	.	8F\	-lem	.	.	.	.	.	.
!	!	!	!	!LO:LB:g=original	!	!	!	!	!	!	!
8AA/	.	.	.	8F\	et	.	.	.	.	.	.
=50	=50	=50	=50	=50	=50	=50	=50	=50	=50	=50	=50
!	!	!	!	!	!	!LO:N:vis=0	!	!	!	!	!
8BB-X/L	.	.	.	4.F\	a-	1r	.	.	.	.	.
8AA/	.	.	.	.	.	.	.	.	.	.	.
8BB-/	.	.	.	.	.	.	.	.	.	.	.
8AA/J	.	.	.	8F\	-bun-	.	.	.	.	.	.
=51	=51	=51	=51	=51	=51	=51	=51	=51	=51	=51	=51
8BB-X/L	.	.	.	8F\	-dan-	.	.	.	.	.	.
8AA/	.	.	.	8F\	-ti-	.	.	.	.	.	.
8BB-/	.	.	.	4F\	-a	.	.	.	.	.	.
8AA/J	.	.	.	.	.	.	.	.	.	.	.
=52	=52	=52	=52	=52	=52	=52	=52	=52	=52	=52	=52
8GG/L	6 -	.	.	8B-X\	di-	2r	.	.	.	.	.
8FF/	.	.	.	(16A\LL	-li-	.	.	.	.	.	.
.	.	.	.	16G\JJ)	.	.	.	.	.	.	.
8C/	6	.	.	8A\	-gen-	.	.	.	.	.	.
8CC/J	4	.	.	16G\	-ti-	.	.	.	.	.	.
.	3	.	.	16F\	-b(us)	.	.	.	.	.	.
=53	=53	=53	=53	=53	=53	=53	=53	=53	=53	=53	=53
4FF/	.	4r	4r	4F\	te	4r	.	4r	.	4r	.
!LO:TX:b:i:t=Tut	!	!	!	!	!	!	!	!	!	!	!
8F\L	.	8a/L	8a/L	8F\	fi-	8c\	Fi-	8f\	Fi-	8r	.
8C\J	.	8cc/J	8cc/J	8C/	-at	8c\	-at	8e\	-at	16a\	Fi-
.	.	.	.	.	.	.	.	.	.	16g/	-at
=54	=54	=54	=54	=54	=54	=54	=54	=54	=54	=54	=54
4FF/	.	8a/L	8a/L	4FF/	pax	4c\	pax	4f\	pax	4a\	pax
.	.	8f/	8f/	.	.	.	.	.	.	.	.
4r	.	8a/	8a/	4r	.	4r	.	4r	.	4r	.
.	.	8cc/J	8cc/J	.	.	.	.	.	.	.	.
!	!	!	!	!	!	!	!	!LO:LB:g=original	!	!	!
=55	=55	=55	=55	=55	=55	=55	=55	=55	=55	=55	=55
4r	.	8a/L	8a/L	4r	.	4r	.	4r	.	4r	.
.	.	8f/	8f/	.	.	.	.	.	.	.	.
8F\L	.	8a/	8a/	8F\	fi-	8c\	{Fi-	8a\	{Fi-	8ff\	fi-
8C\J	.	8cc/J	8cc/J	8C/	-at	8c\	-at	8g\	-at	8ee\	-at
=56	=56	=56	=56	=56	=56	=56	=56	=56	=56	=56	=56
4FF/	.	8a/L	8a/L	4FF/	pax	4c,\	pax}	4a,\	pax}	4ff,\	pax
.	.	8f/	8f/	.	.	.	.	.	.	.	.
!LO:LB:g=original	!	!	!	!	!	!	!	!	!	!	!
4F\	.	8a/	8a/	8F\	in	8c\	in	8a\	in	8cc\	in
.	.	8cc/J	8cc/J	8F\	Vir-	8c\	Vir-	8a\	Vir-	8cc\	Vir-
!	!	!LO:LB:g=original	!	!	!	!	!	!	!	!LO:LB:g=original	!
=57	=57	=57	=57	=57	=57	=57	=57	=57	=57	=57	=57
8F\L	6 4	8dd\L	8dd\L	8F\	-tu-	8B\	-tu-	8g\	-tu-	8dd\	-tu-
!	!	!	!	!	!	!	!	!	!	!LO:SIC:l:s=-te:v	!
8E\	6	8ee\J	8ee\J	8E\	-te	8c\	-te	8g\	-te	8ee\	-tae
!	!	!	!	!LO:LB:g=original	!	!	!	!	!	!	!
8D\	7	16ff\LL	16ff\LL	4D/	tu-	(8c\L	tu-	4f\	tu-	4ff\	tu-
.	.	16ee\	16ee\	.	.	.	.	.	.	.	.
8G\J	7	16ff\	16ff\	.	.	8B\J)	.	.	.	.	.
.	.	16gg\JJ	16gg\JJ	.	.	.	.	.	.	.	.
!	!	!	!LO:LB:g=original	!	!	!LO:LB:g=original	!	!	!	!	!
=58	=58	=58	=58	=58	=58	=58	=58	=58	=58	=58	=58
4C/	.	8ee\L	8ee\L	8C,/	-a	8c,\	-a	8g,\	-a	8ee,\	-a
.	.	16cc\L	16cc\L	8G\	et	8c\	et	8g\	et	8ee\	et
.	.	16dd\JJ	16dd\JJ	.	.	.	.	.	.	.	.
8c\L	.	8ee\L	8ee\L	8c\	a-	8c\	a-	8g\	a-	8ee\	a-
8G\J	.	8gg\J	8gg\J	8G\	-bun-	8B\	-bun-	8g\	-bun-	8dd\	-bun-
=59	=59	=59	=59	=59	=59	=59	=59	=59	=59	=59	=59
4C/	.	8ee\L	8ee\L	8E\	-dan-	8c\	-dan-	8g\	-dan-	8ee\	-dan-
.	.	8cc\	8cc\	16C/	-ti-	16c\	-ti-	16g\	-ti-	16ee\	-ti-
.	.	.	.	16C/	-a	16c\	-a	16g\	-a	16ee\	-a
4r	.	8ee\	8ee\	4r	.	4r	.	4r	.	4r	.
.	.	8gg\J	8gg\J	.	.	.	.	.	.	.	.
=60	=60	=60	=60	=60	=60	=60	=60	=60	=60	=60	=60
4r	.	8ee\L	8ee\L	4r	.	4r	.	4r	.	4r	.
.	.	8cc\	8cc\	.	.	.	.	.	.	.	.
8c\L	.	8ee\	8ee\	8c\	a-	8c\	a-	8g\	a-	8ee\	a-
8G\J	.	8gg\J	8gg\J	8G\	-bun-	8B\	-bun-	8g\	-bun-	8dd\	-bun-
=61	=61	=61	=61	=61	=61	=61	=61	=61	=61	=61	=61
8E\L	6	8cc\L	8cc\L	8E\	-dan-	8c\	-dan-	8g\	-dan-	8ee\	-dan-
8C\	.	8ee\	8ee\	8C/	-ti-	8c\	-ti-	8g\	-ti-	8ee\	-ti-
8F\	6 5	8a\	8a\	8F,\	-a	8c,\	-a	8a,\	-a	8dd\	-a
8D\J	.	8dd\J	8dd\J	8D/	in	8c\	in	8a\	in	8dd\	in
=62	=62	=62	=62	=62	=62	=62	=62	=62	=62	=62	=62
!LO:TX:a:t=P:problem:mixed beam	!	!LO:TX:a:t=♮	!LO:TX:a:t=♮	!	!	!	!	!	!	!	!
8G\L	n	8bny\L	8bny\L	8G\	tur-	8B\	tur-	8g\	tur-	8dd\	tur-
8F\	6	8cc\J	8cc\J	16F\	-ri-	16c\	-ri-	16a\	-ri-	16ee\	-ri-
.	.	.	.	16F\	-b(us)	16d\	-bus	16a\	-b(us)	16ff\	-b(us)
!	!	!LO:TX:a:t=P:problem:mixed beam	!	!LO:TX:a:t=P:problem:mixed beam	!	!	!	!	!	!	!
8G\	.	8d/L	8d/L	8G\L	tu-	4B\	tu-	4g\	tu-	4dd\	tu-
!	!	!	!LO:TX:a:t=♮	!	!	!	!	!	!	!	!
8GG/J	.	8bny\J	8bny/J	8GG/J	.	.	.	.	.	.	.
!	!	!	!	!	!	!	!	!LO:LB:g=original	!	!	!
=63	=63	=63	=63	=63	=63	=63	=63	=63	=63	=63	=63
8C/L	.	8cc\L	8cc\	4C/	-is	8c\	-is	8g\	-is	8cc\	-is
8BB/	.	16gg\L	16gg\LL	.	.	8r	.	8r	.	8r	.
.	.	16ff\JJ	16ff\JJ	.	.	.	.	.	.	.	.
8C/	.	8ee\L	8ee\L	4r	.	4r	.	4r	.	4r	.
8GG/J	.	8dd\J	8dd\J	.	.	.	.	.	.	.	.
=64	=64	=64	=64	=64	=64	=64	=64	=64	=64	=64	=64
!	!	!	!	!LO:N:vis=00	!	!LO:N:vis=00	!	!	!	!LO:N:vis=00	!
8C/L	.	4cc\	4cc\	0r	.	0r	.	4.g\	Pro-	0r	.
8D/	.	.	.	.	.	.	.	.	.	.	.
8E/	.	4r	4r	.	.	.	.	.	.	.	.
8C/J	.	.	.	.	.	.	.	8g\	-pter	.	.
=65	=65	=65	=65	=65	=65	=65	=65	=65	=65	=65	=65
!	!	!LO:N:vis=00	!LO:N:vis=00	!	!	!	!	!	!	!	!
8F\L	.	0r	0r	.	.	.	.	8a\	fra-	.	.
8G\	.	.	.	.	.	.	.	8g\	-tres	.	.
8A\	6	.	.	.	.	.	.	8f\	me-	.	.
8F\J	.	.	.	.	.	.	.	16a\	-os	.	.
.	.	.	.	.	.	.	.	16a\	et	.	.
=66	=66	=66	=66	=66	=66	=66	=66	=66	=66	=66	=66
!LO:TX:a:t=P:problem:mixed beam	!	!	!	!	!	!	!	!	!	!	!
8G\L	.	.	.	.	.	.	.	8d\	pro-	.	.
8F\	.	.	.	.	.	.	.	16e\	-xi-	.	.
.	.	.	.	.	.	.	.	16f\	-mos	.	.
8G\	.	.	.	.	.	.	.	4d\	me-	.	.
8GG/J	.	.	.	.	.	.	.	.	.	.	.
=67	=67	=67	=67	=67	=67	=67	=67	=67	=67	=67	=67
8C/L	.	.	.	.	.	.	.	4c/	-os	.	.
8D/	.	.	.	.	.	.	.	.	.	.	.
8E/	.	.	.	.	.	.	.	8r	.	.	.
!	!	!	!	!	!	!	!	!LO:SIC:s=8g:v	!	!	!
8C/J	.	.	.	.	.	.	.	8f\	lo-	.	.
!LO:LB:g=original	!	!	!	!	!	!	!	!	!	!	!
=68	=68	=68	=68	=68	=68	=68	=68	=68	=68	=68	=68
!	!	!	!	!LO:N:vis=00	!	!LO:N:vis=00	!	!LO:SIC:l:s=-que-:v	!	!LO:N:vis=00	!
4F\	.	.	.	0r	.	0r	.	16a\LL	-quae-	0r	.
.	.	.	.	.	.	.	.	16g\	.	.	.
.	.	.	.	.	.	.	.	16f\	.	.	.
.	.	.	.	.	.	.	.	16g\JJ	.	.	.
8r	.	.	.	.	.	.	.	16a\LL	.	.	.
.	.	.	.	.	.	.	.	16g\	.	.	.
8F\	.	.	.	.	.	.	.	16a\	.	.	.
.	.	.	.	.	.	.	.	16f\JJ	.	.	.
=69	=69	=69	=69	=69	=69	=69	=69	=69	=69	=69	=69
!	!	!LO:N:vis=00	!LO:N:vis=00	!	!	!	!	!	!	!	!
4E\	.	0r	0r	.	.	.	.	16g\LL	.	.	.
.	.	.	.	.	.	.	.	16f\	.	.	.
.	.	.	.	.	.	.	.	16e\	.	.	.
.	.	.	.	.	.	.	.	16f\JJ	.	.	.
8r	.	.	.	.	.	.	.	16g\LL	.	.	.
.	.	.	.	.	.	.	.	16f\	.	.	.
8E\	.	.	.	.	.	.	.	16g\	.	.	.
.	.	.	.	.	.	.	.	16e\JJ	.	.	.
=70	=70	=70	=70	=70	=70	=70	=70	=70	=70	=70	=70
4D/	.	.	.	.	.	.	.	16f\LL	.	.	.
.	.	.	.	.	.	.	.	16e\	.	.	.
.	.	.	.	.	.	.	.	16d\	.	.	.
.	.	.	.	.	.	.	.	16e\JJ	.	.	.
8r	.	.	.	.	.	.	.	16f\LL	.	.	.
.	.	.	.	.	.	.	.	16e\	.	.	.
8D/	.	.	.	.	.	.	.	16f\	.	.	.
.	.	.	.	.	.	.	.	16d\JJ	.	.	.
=71	=71	=71	=71	=71	=71	=71	=71	=71	=71	=71	=71
8C/L	.	.	.	.	.	.	.	8e\	.	.	.
8BB/	.	.	.	.	.	.	.	8d\	-bar	.	.
!	!	!	!	!	!	!	!	!LO:LB:g=original	!	!	!
8C/	.	.	.	.	.	.	.	8e\	pa-	.	.
8AA/J	.	.	.	.	.	.	.	16f#X\	-cem	.	.
.	.	.	.	.	.	.	.	16f#\	de	.	.
=72	=72	=72	=72	=72	=72	=72	=72	=72	=72	=72	=72
!	!	!	!	!LO:N:vis=0	!	!LO:N:vis=0	!	!	!	!	!
8GG/L	.	.	.	1r	.	1r	.	4g\	te	8dd\	pro-
8AA/	.	.	.	.	.	.	.	.	.	8dd\	-pter
!	!	!	!	!	!	!	!	!	!	!LO:LB:g=original	!
8BB/	.	.	.	.	.	.	.	4r	.	8dd\	Do-
8GG/J	.	.	.	.	.	.	.	.	.	8dd\	-mum
=73	=73	=73	=73	=73	=73	=73	=73	=73	=73	=73	=73
8C/L	.	2r	2r	.	.	.	.	2r	.	8ee\	Do-
8D/	.	.	.	.	.	.	.	.	.	16ee\	-mi-
.	.	.	.	.	.	.	.	.	.	16ee,\	-ni
8E/	.	.	.	.	.	.	.	.	.	8ee\	De-
8C/J	.	.	.	.	.	.	.	.	.	8ee\	-i
=74	=74	=74	=74	=74	=74	=74	=74	=74	=74	=74	=74
4G\	.	8r	8r	4r	.	4r	.	4r	.	8dd\	no-
.	.	8gg\L	8gg\L	.	.	.	.	.	.	8dd\	-ſtri
8r	.	8gg\	8gg\	8r	.	8r	.	8r	.	8r	.
8G\	.	8gg\J	8gg\J	8G\	quae-	8B\	quae-	8g\	quae-	8dd\	quae-
=75	=75	=75	=75	=75	=75	=75	=75	=75	=75	=75	=75
8c\L	.	8gg\L	8gg\L	8c\	-ſi-	8c\	-ſi-	8g\	-ſi-	8ee\	-ſi-
8G\J	.	8gg\	8gg\	8G\	-vi	8B\	-vi	8g\	-vi	8dd\	-vi
8r	.	8gg\	8gg\	8r	.	8r	.	8r	.	8r	.
8G\	.	8gg\J	8gg\J	8G\	quae-	8B\	{quae-	8g\	{quae-	8dd\	{quae-
!	!	!LO:LB:g=original	!LO:LB:g=original	!	!	!	!	!	!	!	!
=76	=76	=76	=76	=76	=76	=76	=76	=76	=76	=76	=76
8c\L	.	8gg\L	8gg\L	8c\	-ſi-	8B\	-ſi-	8g\	-ſi-	8ee\	-ſi-
8E\	.	8gg\	8gg\	8E,\	-vi	8c,\	-vi}	8g,\	-vi}	8ee,\	-vi}
8F\	.	8aa\	8aa\	8F\	bo-	8c\	bo-	8a\	bo-	8dd\	bo-
8G\J	.	8gg\J	8gg\J	8G\	-na	8B\	-na	8g\	-na	8dd\	-na
=77	=77	=77	=77	=77	=77	=77	=77	=77	=77	=77	=77
!	!	!LO:TX:a:t=P:problem:mixed beam	!LO:TX:a:t=P:problem:mixed beam	!	!	!	!	!	!	!	!
8C/L	.	8ee\L	8ee\L	8C/	ti-	8c\	ti-	8g\	ti-	8ee\	ti-
8C/J	.	8c/	8c/	8C/	-bi	8c\	-bi	8g\	-bi	8ee\	-bi
4r	.	8e/	8e/	4r	.	4r	.	4r	.	4r	.
.	.	8g/J	8g/J	.	.	.	.	.	.	.	.
=78	=78	=78	=78	=78	=78	=78	=78	=78	=78	=78	=78
!LO:TX:a:t=P:problem:mixed beam	!	!	!	!LO:TX:a:t=P:problem:3 takty więcej w b.c.	!	!LO:TX:a:t=P:problem:3 takty więcej w b.c.	!	!LO:TX:a:t=P:problem:3 takty więcej w b.c.	!	!LO:TX:a:t=P:problem:3 takty więcej w b.c.	!
8C/L	.	8e/L	8e/L	2ryy	.	2ryy	.	2ryy	.	2ryy	.
!LO:TX:b:i:t=Solo	!	!	!	!	!	!	!	!	!	!	!
8c\	.	8c/J	8c/J	.	.	.	.	.	.	.	.
8B\	.	4r	4r	.	.	.	.	.	.	.	.
!LO:TX:b:t=vi	!	!	!	!	!	!	!	!	!	!	!
!LO:TX:a:t=a	!	!	!	!	!	!	!	!	!	!	!
8A\J	.	.	.	.	.	.	.	.	.	.	.
!LO:LB:g=original	!	!	!	!	!	!	!	!	!	!	!
=79	=79	=79	=79	=79	=79	=79	=79	=79	=79	=79	=79
!	!	!LO:N:vis=00	!LO:N:vis=00	!	!	!	!	!	!	!	!
8G\L	.	0r	0r	2ryy	.	2ryy	.	2ryy	.	2ryy	.
8C\J	.	.	.	.	.	.	.	.	.	.	.
8D/L	#	.	.	.	.	.	.	.	.	.	.
8DD/J	.	.	.	.	.	.	.	.	.	.	.
=80	=80	=80	=80	=80	=80	=80	=80	=80	=80	=80	=80
!LO:TX:a:t=P:problem:mixed beam	!	!	!	!	!	!	!	!	!	!	!
8GG\L	.	.	.	2ryy	.	2ryy	.	2ryy	.	2ryy	.
8G\	.	.	.	.	.	.	.	.	.	.	.
8G\	.	.	.	.	.	.	.	.	.	.	.
8G\J	.	.	.	.	.	.	.	.	.	.	.
=81	=81	=81	=81	=81	=81	=81	=81	=81	=81	=81	=81
!	!	!	!	!LO:N:vis=00	!	!LO:N:vis=00	!	!LO:N:vis=00	!	!	!
4A\	6	.	.	0r	.	0r	.	0r	.	16g\LL	Glo-
.	.	.	.	.	.	.	.	.	.	16f\	.
.	.	.	.	.	.	.	.	.	.	16g\	.
.	.	.	.	.	.	.	.	.	.	16a\JJ	.
!LO:TX:b:t=de	!	!	!	!	!	!	!	!	!	!	!
4B\	6 5	.	.	.	.	.	.	.	.	16g\LL	.
.	.	.	.	.	.	.	.	.	.	16a\	.
.	.	.	.	.	.	.	.	.	.	16b\	.
.	.	.	.	.	.	.	.	.	.	16g\JJ	.
=82	=82	=82	=82	=82	=82	=82	=82	=82	=82	=82	=82
8E\L	6	.	.	.	.	.	.	.	.	16cc\LL	.
.	.	.	.	.	.	.	.	.	.	16b\	.
8D\	.	.	.	.	.	.	.	.	.	16cc\	.
.	.	.	.	.	.	.	.	.	.	16dd\JJ	.
!	!	!	!	!	!	!	!	!	!	!LO:LB:g=original	!
8E\	.	.	.	.	.	.	.	.	.	16cc\LL	.
.	.	.	.	.	.	.	.	.	.	16dd\	.
8C\J	.	.	.	.	.	.	.	.	.	16ee\	.
.	.	.	.	.	.	.	.	.	.	16cc\JJ	.
=83	=83	=83	=83	=83	=83	=83	=83	=83	=83	=83	=83
!	!	!LO:N:vis=00	!LO:N:vis=00	!	!	!	!	!	!	!	!
!	!	!LO:TX:a:t=P:problem:dopisane brakujące 4 takty pauzy	!LO:TX:a:t=P:problem:dopisane brakujące 4 takty pauzy	!	!	!	!	!	!	!	!
8BB/L	6	0ryy	0ryy	.	.	.	.	.	.	16dd\LL	.
.	.	.	.	.	.	.	.	.	.	16cc\	.
8AA/	.	.	.	.	.	.	.	.	.	16dd\	.
.	.	.	.	.	.	.	.	.	.	16ee\JJ	.
8BB/	.	.	.	.	.	.	.	.	.	16dd\LL	.
.	.	.	.	.	.	.	.	.	.	16ee\	.
8GG/J	.	.	.	.	.	.	.	.	.	16ff\	.
.	.	.	.	.	.	.	.	.	.	16dd\JJ	.
=84	=84	=84	=84	=84	=84	=84	=84	=84	=84	=84	=84
4C/	.	.	.	.	.	.	.	.	.	16ee\LL	.
.	.	.	.	.	.	.	.	.	.	16dd\	.
.	.	.	.	.	.	.	.	.	.	16cc\	.
.	.	.	.	.	.	.	.	.	.	16dd\JJ	.
8r	.	.	.	.	.	.	.	.	.	16ee\LL	.
.	.	.	.	.	.	.	.	.	.	16dd\	.
8D/	.	.	.	.	.	.	.	.	.	16ee\	.
.	.	.	.	.	.	.	.	.	.	16ff\JJ	.
=85	=85	=85	=85	=85	=85	=85	=85	=85	=85	=85	=85
!	!	!	!LO:N:vis=00	!LO:N:vis=0	!	!LO:N:vis=0	!	!LO:N:vis=0	!	!	!
8E\L	.	.	.	1r	.	1r	.	1r	.	8gg\	.
8F\	.	.	.	.	.	.	.	.	.	16ff\	-ri-
.	.	.	.	.	.	.	.	.	.	16ee\	-a
8G\	.	.	.	.	.	.	.	.	.	8dd\	Pa-
8A\J	.	.	.	.	.	.	.	.	.	16cc,\	-tri
.	.	.	.	.	.	.	.	.	.	16cc\	et
=86	=86	=86	=86	=86	=86	=86	=86	=86	=86	=86	=86
8G\L	.	.	.	.	.	.	.	.	.	8dd\	fi-
8F\	.	.	.	.	.	.	.	.	.	16dd\	-li-
.	.	.	.	.	.	.	.	.	.	16dd,\	-o
8E\	.	.	.	.	.	.	.	.	.	8gg\	et
8F\J	.	.	.	.	.	.	.	.	.	16ff\LL	ſpi-
.	.	.	.	.	.	.	.	.	.	16ee\JJ	.
=87	=87	=87	=87	=87	=87	=87	=87	=87	=87	=87	=87
8G\L	.	2r	2r	2r	.	2r	.	2r	.	8dd\	-ri-
8C\J	.	.	.	.	.	.	.	.	.	16ee\	-tu-
.	.	.	.	.	.	.	.	.	.	16ff,\	-i
!LO:TX:a:t=P:problem:mixed beam	!	!	!	!	!	!	!	!	!	!	!
8G\L	.	.	.	.	.	.	.	.	.	4dd\	ſan-
8GG/J	.	.	.	.	.	.	.	.	.	.	.
=88	=88	=88	=88	=88	=88	=88	=88	=88	=88	=88	=88
!LO:TX:a:t=P:problem:mixed beam	!	!	!	!	!	!	!	!	!	!	!
8C/L	.	8r	8r	8r	.	8r	.	8r	.	8cc,\	-cto
!LO:TX:b:i:t=Tut	!	!	!	!	!	!	!	!	!	!	!
8c\	.	8ee\L	8ee\L	16c\	ſi-	16c\	ſi-	16g\	ſi-	16ee\	ſi-
.	.	.	.	16c\	-cut	16c\	-cut	16g\	-cut	16ee\	-cut
!	!	!	!	!	!	!	!	!	!	!LO:LB:g=original	!
8B\	.	8dd\	8dd\	8B\	e-	8d\	e-	8g\	e-	8dd\	e-
8A\J	6|	8cc\J	8cc\J	8A\	-rat	8A/	-rat	8f#X\	-rat	8cc\	-rat
=89	=89	=89	=89	=89	=89	=89	=89	=89	=89	=89	=89
!LO:TX:a:t=P:problem:mixed beam	!	!	!	!	!	!	!	!	!	!	!
8G\L	.	8b\L	8b\L	8G\	in	8d\	in	8g\	in	8b\	in
8C/	.	8ee\	8ee\	8C/	prin-	8e\	prin-	8g\	prin-	16cc\LL	prin-
.	.	.	.	.	.	.	.	.	.	16dd\JJ	.
8D/	#	8a\	8a\	8D/	-ci-	8d\	-ci-	8f#X\	-ci-	8.a\	-ci-
8DD/J	8	8dd\J	8dd\J	8D/	-pi-	8d\	-pi-	8f#\	-pi-	.	.
.	.	.	.	.	.	.	.	.	.	16a\	-pi-
!LO:LB:g=original	!	!	!	!LO:LB:g=original	!	!LO:LB:g=original	!	!LO:LB:g=original	!	!	!
=90	=90	=90	=90	=90	=90	=90	=90	=90	=90	=90	=90
!LO:TX:a:t=P:problem:mixed beam	!	!	!	!	!	!	!	!	!	!	!
8GG/L	.	8b/	8b/	8GG,/	-o	8d,\	-o	8g\	-o	8g/	-o
8G\	.	8r	8r	8G\	et	8B\	et	8g\	et	8r	.
8G\	.	4r	4r	8G\	nunc	8B\	nunc	8g\	nunc	4r	.
8G\J	.	.	.	8G\	et	8B\	et	8g\	et	.	.
=91	=91	=91	=91	=91	=91	=91	=91	=91	=91	=91	=91
4A\	6	2r	2r	8G\	ſem-	8c\	ſem-	8f\	ſ(em)-	2r	.
.	.	.	.	16G\LL	-per	8c,\	-per	8f\	-per	.	.
.	.	.	.	16A,\JJ	.	.	.	.	.	.	.
4B\	6 5	.	.	8B\	et	8d\	et	8f\	et	.	.
.	.	.	.	(16A\LL	in	8d\	in	8f\	in	.	.
.	.	.	.	16B\JJ)	.	.	.	.	.	.	.
=92	=92	=92	=92	=92	=92	=92	=92	=92	=92	=92	=92
8c\L	.	8r	8r	8c\	ſae-	8G/	ſae-	8e\	ſae-	8r	.
!	!	!	!LO:SIC:s=8g:v	!	!	!	!	!	!	!	!
8E\	6	8g/L	8f/L	8E\	-cu-	8G/	-cu-	8e\	-cu-	8cc\	et
!	!	!	!LO:SIC:s=8g:v	!	!	!	!	!	!	!	!
8E\	.	8g/	8f/	8E\	-la	8G/	-la	8e\	-la	8cc\	nunc
!	!	!	!LO:SIC:s=8g:v	!	!	!	!	!	!	!	!
8E\J	.	8g/J	8f/J	8E\	et	8r	.	8r	.	8cc\	et
=93	=93	=93	=93	=93	=93	=93	=93	=93	=93	=93	=93
!	!	!	!LO:SIC:s=18a:v	!	!	!	!	!	!	!	!
4F\	6	16a/LL	16g/LL	8F\	ſem-	4r	.	4r	.	8a\	ſem-
!	!	!	!LO:SIC:s=16g:v	!	!	!	!	!	!	!	!
.	.	16g/J	16f/J	.	.	.	.	.	.	.	.
!	!	!	!LO:SIC:s=8a:v	!	!	!	!	!	!	!	!
.	.	8a/J	8g/J	(16E\LL	-per	.	.	.	.	(16g/LL	-per
.	.	.	.	16F\JJ)	.	.	.	.	.	16a/JJ)	.
4G\	6 5	16b/LL	16b/LL	8G\	et	8r	.	8r	.	8b\	et
.	.	16a/J	16a/J	.	.	.	.	.	.	.	.
.	.	8b/J	8b/J	(16F\LL	in	8d\	in	8g\	in	(16a\LL	in
.	.	.	.	16G\JJ)	.	.	.	.	.	16b\JJ)	.
=94	=94	=94	=94	=94	=94	=94	=94	=94	=94	=94	=94
4A\	.	16cc\LL	16cc\LL	8A\	ſae-	8c\	ſae-	8f\	ſae-	8cc\	ſae-
.	.	16b\J	16b\J	.	.	.	.	.	.	.	.
.	.	8cc\J	8cc\J	16G\	-cu-	16d\	-cu-	16f\	-cu-	16b\	-cu-
.	.	.	.	16A\	-la	16c\	-la	16f\	-la	16cc\	-la
!	!	!LO:LB:g=original	!	!	!	!	!	!	!	!	!
4B\	.	16dd\LL	16dd\LL	8B\	ſae-	8G/	ſae-	8f\	ſae-	8dd\	ſae-
.	.	16cc\J	16cc\J	.	.	.	.	.	.	.	.
.	.	8dd\J	8dd\J	(16A\LL	-cu-	8G/	-cu-	8f\	-cu-	16cc\LL	-cu-
.	.	.	.	16B\JJ)	.	.	.	.	.	16dd\JJ	.
!	!	!	!	!LO:LB:g=original	!	!	!	!	!	!	!
=95	=95	=95	=95	=95	=95	=95	=95	=95	=95	=95	=95
!LO:TX:a:t=P:problem:mixed beam	!	!	!	!	!	!	!	!	!	!	!
8c\L	.	8ee\L	8ee\L	8c\	-lo-	8c\	-lo-	(<8e\	-lo-	8ee\	-lo-
8F\	.	8aa\	8aa\	8F\	-rum	8d\	-ru(m)	8a,\	-rum	(<8ff\	-rum
8G\	.	8dd\	8dd\	4G\	A-	4B\	A-	4g\)	A-	4dd\)	A-
8GG/J	.	8gg\J	8gg\J	.	.	.	.	.	.	.	.
!	!	!	!	!	!	!LO:LB:g=original	!	!	!	!	!
=96	=96	=96	=96	=96	=96	=96	=96	=96	=96	=96	=96
4C/	.	8ee\L	8ee\L	4C/	-men	4c\	-men	4g\	-men	4cc,\	-men
.	.	8gg\	8gg\	.	.	.	.	.	.	.	.
8F\L	.	8ff\	8ff\	8F\	{A-	8A\	.	8a\	{A-	8cc\	{A-
8C\J	.	8gg\J	8gg\J	8C/	-men}	8c\	.	8g\	-men}	8cc\	-men}
!	!	!	!LO:LB:g=original	!	!	!	!	!	!	!	!
=97	=97	=97	=97	=97	=97	=97	=97	=97	=97	=97	=97
*	*	*2\right	*2\right	*	*	*	*	*2\right	*	*2\right	*
!	!	!	!LO:TX:a:t=Amen	!	!	!	!	!	!	!	!
2GG/	5 4	2gg\	2gg\	2GG/	A-	(4c\	A-	2g\	A-	2dd\	A-
.	3	.	.	.	.	4B\)	.	.	.	.	.
=98	=98	=98	=98	=98	=98	=98	=98	=98	=98	=98	=98
2CC/	.	2ee\	2ee\	2C/	-men	2c\	-men	2g\	-men	2ee\	-men
==	==	==	==	==	==	==	==	==	==	==	==
*-	*-	*-	*-	*-	*-	*-	*-	*-	*-	*-	*-
!!!system-decoration: [(g1)][(g2)][(g3)]
!!!RDF**kern: >= above
!!!RDF**kern: <= below
!!!ENC: Anna Matuszewska
!!!END: 2020-11-01
!!!ENC: Andrzej Borzym
!!!END: 2020-06-05
